X: 13460
T: Flop-Eared Mule, The
R: polka
M: 2/4
K: Dmajor
|:"D"=f2^f2 c2d2|ABAG FED2|"Em"E2EF "A7"GECE|"D"DEFG A4|
=f2^f2 c2d2|ABAG FED2|"Em"E2EF "A7"GECE|1 "D"D2"A"F2 "D"D4:|2 "D"D2"A"F2 "D"D2||
|:cd|"A"efec e2cd|efed cBA2|"Bm"B2Bc "E7"dB^GB|"A"ABcd e2cd|
efec efec|efed cBA2|"Bm"B2Bc "E7"dB^GB|"A"A2"E"c2 "A"A2:|

